; generated by SuperSlicer 2.4 on 2023-01-19 at 01:37:36 UTC


;
;

;
;
; 

; external perimeters extrusion width = 0.40mm
; perimeters extrusion width = 0.45mm
; infill extrusion width = 0.72mm
; solid infill extrusion width = 0.56mm
; top infill extrusion width = 0.40mm
; first layer extrusion width = 0.48mm

; object:{"name":"First_Layer_Patch-0","id":"First_Layer_Patch-0.24mm.stl id:0 copy 0","object_center":[150.000000,189.910000,0.000000],"boundingbox_center":[150.000000,189.910000,0.120000],"boundingbox_size":[25.000000,25.000000,0.240000]}
; object:{"name":"First_Layer_Patch-0","id":"First_Layer_Patch-0.24mm.stl id:0 copy 1","object_center":[150.000000,249.730000,0.000000],"boundingbox_center":[150.000000,249.730000,0.120000],"boundingbox_size":[25.000000,25.000000,0.240000]}
; object:{"name":"First_Layer_Patch-0","id":"First_Layer_Patch-0.24mm.stl id:0 copy 2","object_center":[239.820000,189.910000,0.000000],"boundingbox_center":[239.820000,189.910000,0.120000],"boundingbox_size":[25.000000,25.000000,0.240000]}
; object:{"name":"First_Layer_Patch-0","id":"First_Layer_Patch-0.24mm.stl id:0 copy 3","object_center":[239.820000,249.730000,0.000000],"boundingbox_center":[239.820000,249.730000,0.120000],"boundingbox_size":[25.000000,25.000000,0.240000]}
; object:{"name":"First_Layer_Patch-0","id":"First_Layer_Patch-0.24mm.stl id:0 copy 4","object_center":[150.000000,110.090000,0.000000],"boundingbox_center":[150.000000,110.090000,0.120000],"boundingbox_size":[25.000000,25.000000,0.240000]}
; object:{"name":"First_Layer_Patch-0","id":"First_Layer_Patch-0.24mm.stl id:0 copy 5","object_center":[239.820000,110.090000,0.000000],"boundingbox_center":[239.820000,110.090000,0.120000],"boundingbox_size":[25.000000,25.000000,0.240000]}
; object:{"name":"First_Layer_Patch-0","id":"First_Layer_Patch-0.24mm.stl id:0 copy 6","object_center":[60.180000,189.910000,0.000000],"boundingbox_center":[60.180000,189.910000,0.120000],"boundingbox_size":[25.000000,25.000000,0.240000]}
; object:{"name":"First_Layer_Patch-0","id":"First_Layer_Patch-0.24mm.stl id:0 copy 7","object_center":[60.180000,249.730000,0.000000],"boundingbox_center":[60.180000,249.730000,0.120000],"boundingbox_size":[25.000000,25.000000,0.240000]}
; object:{"name":"First_Layer_Patch-0","id":"First_Layer_Patch-0.24mm.stl id:0 copy 8","object_center":[60.180000,110.090000,0.000000],"boundingbox_center":[60.180000,110.090000,0.120000],"boundingbox_size":[25.000000,25.000000,0.240000]}
; object:{"name":"First_Layer_Patch-0","id":"First_Layer_Patch-0.24mm.stl id:0 copy 9","object_center":[150.000000,40.270000,0.000000],"boundingbox_center":[150.000000,40.270000,0.120000],"boundingbox_size":[25.000000,25.000000,0.240000]}
; object:{"name":"First_Layer_Patch-0","id":"First_Layer_Patch-0.24mm.stl id:0 copy 10","object_center":[239.820000,40.270000,0.000000],"boundingbox_center":[239.820000,40.270000,0.120000],"boundingbox_size":[25.000000,25.000000,0.240000]}
; object:{"name":"First_Layer_Patch-0","id":"First_Layer_Patch-0.24mm.stl id:0 copy 11","object_center":[60.180000,40.270000,0.000000],"boundingbox_center":[60.180000,40.270000,0.120000],"boundingbox_size":[25.000000,25.000000,0.240000]}
; plater:{"center":[150.000000,145.000000,0.000000],"boundingbox_center":[150.000000,145.000000,0.120000],"boundingbox_size":[204.640000,234.460000,0.240000]}

M73 P0 R7
;TYPE:Custom
; custom gcode: start_gcode
; M190 S0
; M109 S0 ; uncomment to remove set&wait temp gcode added automatically after this start gcode
print_start NOZZLE_TEMP=245 BED_TEMP=110 CHAMBER=50
; custom gcode end: start_gcode
M107
G21 ; set units to millimeters
G90 ; use absolute coordinates
M83 ; use relative distances for extrusion
; custom gcode: start_filament_gcode
; Filament gcode
; custom gcode end: start_filament_gcode
;_TOOLCHANGE 0
M109 S245 ; set temperature and wait for it to be reached
M190 S110 ; set bed temperature and wait for it to be reached
;LAYER_CHANGE
;Z:0.24
;HEIGHT:0.24
G1 Z0.24 F27000
G92 E0
M73 P4 R7
G1 E-0.2 F1800
G1 Z0.44 F27000
G1 X42.301 Y23.962
G1 Z0.24
G1 E0.2 F1800
; custom gcode: feature_gcode
; External perimeter
;Skirt
SET_VELOCITY_LIMIT ACCEL=7000 ACCEL_TO_DECEL=7000 SQUARE_CORNER_VELOCITY=8

; Support material
; custom gcode end: feature_gcode

;TYPE:Skirt
;WIDTH:0.45
G1 F6000
G1 X41.384 Y25.582 E0.08328
G1 X40.987 Y27.87 E0.1039
G1 X40.987 Y262.13 E10.47899
G1 X41.117 Y263.456 E0.0596
G1 X41.953 Y265.623 E0.1039
G1 X43.471 Y267.381 E0.1039
G1 X45.492 Y268.526 E0.1039
G1 X47.78 Y268.923 E0.1039
G1 X252.22 Y268.923 E9.14507
M73 P5 R7
G1 X253.546 Y268.793 E0.0596
G1 X255.713 Y267.957 E0.1039
G1 X257.471 Y266.439 E0.1039
G1 X258.616 Y264.418 E0.1039
G1 X259.013 Y262.13 E0.1039
G1 X259.013 Y27.87 E10.47899
M73 P6 R7
G1 X258.883 Y26.544 E0.0596
G1 X258.047 Y24.377 E0.1039
G1 X256.529 Y22.619 E0.1039
G1 X254.508 Y21.474 E0.1039
G1 X252.22 Y21.077 E0.1039
G1 X47.78 Y21.077 E9.14507
G1 X46.454 Y21.207 E0.0596
G1 X44.287 Y22.043 E0.1039
G1 X42.529 Y23.561 E0.1039
G1 X42.301 Y23.962 E0.02062
G1 X42.654 Y24.169 F27000
G1 F6000
G1 X41.782 Y25.652 E0.07697
G1 X41.385 Y27.87 E0.10078
G1 X41.385 Y262.13 E10.47899
M73 P7 R7
G1 X42.194 Y265.242 E0.14384
G1 X43.62 Y266.986 E0.10078
G1 X45.562 Y268.128 E0.10078
G1 X47.78 Y268.525 E0.10078
G1 X252.22 Y268.525 E9.14507
M73 P8 R7
G1 X255.332 Y267.716 E0.14384
G1 X257.077 Y266.29 E0.10078
G1 X258.218 Y264.348 E0.10078
G1 X258.615 Y262.13 E0.10078
G1 X258.615 Y27.87 E10.47899
G1 X257.806 Y24.758 E0.14384
G1 X256.38 Y23.013 E0.10078
G1 X254.438 Y21.872 E0.10078
G1 X252.22 Y21.475 E0.10078
G1 X47.78 Y21.475 E9.14507
M73 P9 R7
G1 X44.668 Y22.284 E0.14384
G1 X42.923 Y23.71 E0.10078
G1 X42.654 Y24.169 E0.02381
G1 X43.002 Y24.382 F27000
G1 F6000
G1 X42.18 Y25.725 E0.07045
G1 X41.784 Y27.87 E0.09756
G1 X41.784 Y262.13 E10.47899
M73 P10 R7
G1 X42.443 Y264.864 E0.12582
G1 X43.774 Y266.592 E0.09756
G1 X45.635 Y267.73 E0.09756
G1 X47.78 Y268.126 E0.09756
G1 X252.22 Y268.126 E9.14507
G1 X254.954 Y267.467 E0.12582
G1 X256.682 Y266.136 E0.09756
G1 X257.82 Y264.275 E0.09756
G1 X258.216 Y262.13 E0.09756
G1 X258.216 Y27.87 E10.47899
M73 P11 R7
G1 X257.557 Y25.136 E0.12582
G1 X256.226 Y23.408 E0.09756
G1 X254.365 Y22.27 E0.09756
G1 X252.22 Y21.874 E0.09756
G1 X47.78 Y21.874 E9.14507
M73 P12 R6
G1 X45.046 Y22.533 E0.12582
G1 X43.318 Y23.864 E0.09756
G1 X43.002 Y24.382 E0.02711
G1 X43.345 Y24.6 F27000
G1 F6000
G1 X42.579 Y25.801 E0.06371
G1 X42.182 Y27.87 E0.09424
G1 X42.182 Y262.13 E10.47899
G1 X42.704 Y264.489 E0.10806
G1 X43.935 Y266.198 E0.09424
G1 X45.711 Y267.331 E0.09424
G1 X47.78 Y267.728 E0.09424
G1 X252.22 Y267.728 E9.14507
M73 P13 R6
G1 X254.579 Y267.206 E0.10806
G1 X256.288 Y265.975 E0.09424
G1 X257.421 Y264.199 E0.09424
G1 X257.818 Y262.13 E0.09424
G1 X257.818 Y27.87 E10.47899
M73 P14 R6
G1 X257.296 Y25.511 E0.10806
G1 X256.065 Y23.802 E0.09424
G1 X254.289 Y22.669 E0.09424
G1 X252.22 Y22.272 E0.09424
G1 X47.78 Y22.272 E9.14507
G1 X45.421 Y22.794 E0.10806
G1 X43.712 Y24.025 E0.09424
G1 X43.345 Y24.6 E0.03053
G1 X43.682 Y24.825 F27000
G1 F6000
G1 X42.977 Y25.879 E0.05671
G1 X42.581 Y27.87 E0.09079
G1 X42.581 Y262.13 E10.47899
M73 P15 R6
G1 X42.975 Y264.117 E0.09061
G1 X44.102 Y265.805 E0.09079
G1 X45.789 Y266.933 E0.09079
G1 X47.78 Y267.329 E0.09079
G1 X252.22 Y267.329 E9.14507
G1 X254.207 Y266.935 E0.09061
G1 X255.895 Y265.808 E0.09079
G1 X257.023 Y264.121 E0.09079
G1 X257.419 Y262.13 E0.09079
G1 X257.419 Y27.87 E10.47899
M73 P16 R6
G1 X257.025 Y25.883 E0.09061
G1 X255.898 Y24.195 E0.09079
G1 X254.211 Y23.067 E0.09079
G1 X252.22 Y22.671 E0.09079
G1 X47.78 Y22.671 E9.14507
M73 P17 R6
G1 X45.793 Y23.065 E0.09061
G1 X44.105 Y24.192 E0.09079
G1 X43.682 Y24.825 E0.03408
G1 E-0.2 F1800
G1 Z0.44 F27000
; printing object First_Layer_Patch-0.24mm.stl id:0 copy 0
G1 X150 Y202.07
G1 Z0.24
G1 E0.2 F1800
; custom gcode: feature_gcode
; External perimeter
;ExternalPerimeter
SET_VELOCITY_LIMIT ACCEL=1000 ACCEL_TO_DECEL=1000 SQUARE_CORNER_VELOCITY=8

; Perimeter
; custom gcode end: feature_gcode

;TYPE:External perimeter
;WIDTH:0.48
G1 F6000
G1 X137.84 Y202.07 E0.58489
G1 X137.84 Y201.95 E0.00515
G1 X137.84 Y201.71 E0.01092
G1 X137.84 Y177.75 E1.15247
G1 X137.96 Y177.75 E0.00515
G1 X138.2 Y177.75 E0.01092
G1 X162.16 Y177.75 E1.15247
G1 X162.16 Y177.87 E0.00515
G1 X162.16 Y178.11 E0.01092
G1 X162.16 Y202.07 E1.15247
G1 X162.04 Y202.07 E0.00515
G1 X161.8 Y202.07 E0.01092
G1 X150 Y202.07 E0.56758
;WIPE_START
G1 X149.8 Y201.724 F27000
;WIPE_END
G1 E-0.2 F1800
G1 Z0.44 F27000
G1 X137.904 Y178.007
G1 Z0.24
G1 E0.2 F1800
; custom gcode: feature_gcode
; External perimeter
;SolidInfill
SET_VELOCITY_LIMIT ACCEL=4000 ACCEL_TO_DECEL=4000 SQUARE_CORNER_VELOCITY=8

; Bridge infill
; custom gcode end: feature_gcode

;TYPE:Solid infill
;WIDTH:0.4793
G1 F3600
G1 X161.911 Y178.007 E1.15306
G1 X161.911 Y178.436 E0.02058
G1 X138.089 Y178.436 E1.14421
G1 X138.089 Y178.864 E0.02058
G1 X161.911 Y178.864 E1.14421
M73 P18 R6
G1 X161.911 Y179.293 E0.02058
G1 X138.089 Y179.293 E1.14421
G1 X138.089 Y179.721 E0.02058
G1 X161.911 Y179.721 E1.14421
G1 X161.911 Y180.15 E0.02058
G1 X138.089 Y180.15 E1.14421
G1 X138.089 Y180.578 E0.02058
G1 X161.911 Y180.578 E1.14421
G1 X161.911 Y181.007 E0.02058
G1 X138.089 Y181.007 E1.14421
G1 X138.089 Y181.435 E0.02058
G1 X161.911 Y181.435 E1.14421
G1 X161.911 Y181.864 E0.02058
G1 X138.089 Y181.864 E1.14421
G1 X138.089 Y182.292 E0.02058
G1 X161.911 Y182.292 E1.14421
G1 X161.911 Y182.721 E0.02058
G1 X138.089 Y182.721 E1.14421
M73 P19 R6
G1 X138.089 Y183.149 E0.02058
G1 X161.911 Y183.149 E1.14421
G1 X161.911 Y183.578 E0.02058
G1 X138.089 Y183.578 E1.14421
G1 X138.089 Y184.006 E0.02058
G1 X161.911 Y184.006 E1.14421
G1 X161.911 Y184.435 E0.02058
G1 X138.089 Y184.435 E1.14421
G1 X138.089 Y184.863 E0.02058
G1 X161.911 Y184.863 E1.14421
G1 X161.911 Y185.292 E0.02058
G1 X138.089 Y185.292 E1.14421
G1 X138.089 Y185.72 E0.02058
G1 X161.911 Y185.72 E1.14421
G1 X161.911 Y186.149 E0.02058
G1 X138.089 Y186.149 E1.14421
M73 P20 R6
G1 X138.089 Y186.577 E0.02058
G1 X161.911 Y186.577 E1.14421
G1 X161.911 Y187.006 E0.02058
G1 X138.089 Y187.006 E1.14421
G1 X138.089 Y187.434 E0.02058
G1 X161.911 Y187.434 E1.14421
G1 X161.911 Y187.863 E0.02058
G1 X138.089 Y187.863 E1.14421
G1 X138.089 Y188.291 E0.02058
G1 X161.911 Y188.291 E1.14421
G1 X161.911 Y188.72 E0.02058
G1 X138.089 Y188.72 E1.14421
G1 X138.089 Y189.148 E0.02058
G1 X161.911 Y189.148 E1.14421
G1 X161.911 Y189.576 E0.02058
G1 X138.089 Y189.576 E1.14421
G1 X138.089 Y190.005 E0.02058
G1 X161.911 Y190.005 E1.14421
M73 P21 R6
G1 X161.911 Y190.433 E0.02058
G1 X138.089 Y190.433 E1.14421
G1 X138.089 Y190.862 E0.02058
G1 X161.911 Y190.862 E1.14421
G1 X161.911 Y191.29 E0.02058
G1 X138.089 Y191.29 E1.14421
G1 X138.089 Y191.719 E0.02058
G1 X161.911 Y191.719 E1.14421
G1 X161.911 Y192.147 E0.02058
G1 X138.089 Y192.147 E1.14421
G1 X138.089 Y192.576 E0.02058
G1 X161.911 Y192.576 E1.14421
G1 X161.911 Y193.004 E0.02058
G1 X138.089 Y193.004 E1.14421
G1 X138.089 Y193.433 E0.02058
G1 X161.911 Y193.433 E1.14421
G1 X161.911 Y193.861 E0.02058
G1 X138.089 Y193.861 E1.14421
M73 P22 R6
G1 X138.089 Y194.29 E0.02058
G1 X161.911 Y194.29 E1.14421
G1 X161.911 Y194.718 E0.02058
G1 X138.089 Y194.718 E1.14421
G1 X138.089 Y195.147 E0.02058
G1 X161.911 Y195.147 E1.14421
G1 X161.911 Y195.575 E0.02058
G1 X138.089 Y195.575 E1.14421
G1 X138.089 Y196.004 E0.02058
G1 X161.911 Y196.004 E1.14421
G1 X161.911 Y196.432 E0.02058
G1 X138.089 Y196.432 E1.14421
G1 X138.089 Y196.861 E0.02058
G1 X161.911 Y196.861 E1.14421
G1 X161.911 Y197.289 E0.02058
G1 X138.089 Y197.289 E1.14421
M73 P23 R6
G1 X138.089 Y197.718 E0.02058
G1 X161.911 Y197.718 E1.14421
G1 X161.911 Y198.146 E0.02058
G1 X138.089 Y198.146 E1.14421
G1 X138.089 Y198.575 E0.02058
G1 X161.911 Y198.575 E1.14421
G1 X161.911 Y199.003 E0.02058
G1 X138.089 Y199.003 E1.14421
G1 X138.089 Y199.432 E0.02058
G1 X161.911 Y199.432 E1.14421
G1 X161.911 Y199.86 E0.02058
G1 X138.089 Y199.86 E1.14421
G1 X138.089 Y200.289 E0.02058
G1 X161.911 Y200.289 E1.14421
G1 X161.911 Y200.717 E0.02058
G1 X138.089 Y200.717 E1.14421
G1 X138.089 Y201.146 E0.02058
G1 X161.911 Y201.146 E1.14421
M73 P24 R6
G1 X161.911 Y201.574 E0.02058
G1 X137.904 Y201.574 E1.15306
G1 E-0.2 F1800
G1 Z0.44 F27000
; stop printing object First_Layer_Patch-0.24mm.stl id:0 copy 0
; printing object First_Layer_Patch-0.24mm.stl id:0 copy 1
G1 X150 Y261.89
G1 Z0.24
G1 E0.2 F1800
; custom gcode: feature_gcode
; External perimeter
;ExternalPerimeter
SET_VELOCITY_LIMIT ACCEL=1000 ACCEL_TO_DECEL=1000 SQUARE_CORNER_VELOCITY=8

; Perimeter
; custom gcode end: feature_gcode

;TYPE:External perimeter
;WIDTH:0.48
G1 F6000
G1 X137.84 Y261.89 E0.58489
G1 X137.84 Y261.77 E0.00515
G1 X137.84 Y261.53 E0.01092
G1 X137.84 Y237.57 E1.15247
G1 X137.96 Y237.57 E0.00515
G1 X138.2 Y237.57 E0.01092
G1 X162.16 Y237.57 E1.15247
G1 X162.16 Y237.69 E0.00515
G1 X162.16 Y237.93 E0.01092
G1 X162.16 Y261.89 E1.15247
G1 X162.04 Y261.89 E0.00515
G1 X161.8 Y261.89 E0.01092
G1 X150 Y261.89 E0.56758
;WIPE_START
G1 X149.8 Y261.544 F27000
;WIPE_END
M73 P24 R5
G1 E-0.2 F1800
G1 Z0.44 F27000
G1 X137.904 Y237.827
G1 Z0.24
G1 E0.2 F1800
; custom gcode: feature_gcode
; External perimeter
;SolidInfill
SET_VELOCITY_LIMIT ACCEL=4000 ACCEL_TO_DECEL=4000 SQUARE_CORNER_VELOCITY=8

; Bridge infill
; custom gcode end: feature_gcode

;TYPE:Solid infill
;WIDTH:0.4793
G1 F3600
G1 X161.911 Y237.827 E1.15306
G1 X161.911 Y238.256 E0.02058
G1 X138.089 Y238.256 E1.14421
G1 X138.089 Y238.684 E0.02058
G1 X161.911 Y238.684 E1.14421
G1 X161.911 Y239.113 E0.02058
G1 X138.089 Y239.113 E1.14421
M73 P25 R5
G1 X138.089 Y239.541 E0.02058
G1 X161.911 Y239.541 E1.14421
G1 X161.911 Y239.97 E0.02058
G1 X138.089 Y239.97 E1.14421
G1 X138.089 Y240.398 E0.02058
G1 X161.911 Y240.398 E1.14421
G1 X161.911 Y240.827 E0.02058
G1 X138.089 Y240.827 E1.14421
G1 X138.089 Y241.255 E0.02058
G1 X161.911 Y241.255 E1.14421
G1 X161.911 Y241.684 E0.02058
G1 X138.089 Y241.684 E1.14421
G1 X138.089 Y242.112 E0.02058
G1 X161.911 Y242.112 E1.14421
G1 X161.911 Y242.541 E0.02058
G1 X138.089 Y242.541 E1.14421
G1 X138.089 Y242.969 E0.02058
G1 X161.911 Y242.969 E1.14421
M73 P26 R5
G1 X161.911 Y243.398 E0.02058
G1 X138.089 Y243.398 E1.14421
G1 X138.089 Y243.826 E0.02058
G1 X161.911 Y243.826 E1.14421
G1 X161.911 Y244.255 E0.02058
G1 X138.089 Y244.255 E1.14421
G1 X138.089 Y244.683 E0.02058
G1 X161.911 Y244.683 E1.14421
G1 X161.911 Y245.112 E0.02058
G1 X138.089 Y245.112 E1.14421
G1 X138.089 Y245.54 E0.02058
G1 X161.911 Y245.54 E1.14421
G1 X161.911 Y245.969 E0.02058
G1 X138.089 Y245.969 E1.14421
G1 X138.089 Y246.397 E0.02058
G1 X161.911 Y246.397 E1.14421
M73 P27 R5
G1 X161.911 Y246.826 E0.02058
G1 X138.089 Y246.826 E1.14421
G1 X138.089 Y247.254 E0.02058
G1 X161.911 Y247.254 E1.14421
G1 X161.911 Y247.683 E0.02058
G1 X138.089 Y247.683 E1.14421
G1 X138.089 Y248.111 E0.02058
G1 X161.911 Y248.111 E1.14421
G1 X161.911 Y248.54 E0.02058
G1 X138.089 Y248.539 E1.14421
G1 X138.089 Y248.968 E0.02058
G1 X161.911 Y248.968 E1.14421
G1 X161.911 Y249.396 E0.02058
G1 X138.089 Y249.396 E1.14421
G1 X138.089 Y249.825 E0.02058
G1 X161.911 Y249.825 E1.14421
G1 X161.911 Y250.253 E0.02058
G1 X138.089 Y250.253 E1.14421
M73 P28 R5
G1 X138.089 Y250.682 E0.02058
G1 X161.911 Y250.682 E1.14421
G1 X161.911 Y251.11 E0.02058
G1 X138.089 Y251.11 E1.14421
G1 X138.089 Y251.539 E0.02058
G1 X161.911 Y251.539 E1.14421
G1 X161.911 Y251.967 E0.02058
G1 X138.089 Y251.967 E1.14421
G1 X138.089 Y252.396 E0.02058
G1 X161.911 Y252.396 E1.14421
G1 X161.911 Y252.824 E0.02058
G1 X138.089 Y252.824 E1.14421
G1 X138.089 Y253.253 E0.02058
G1 X161.911 Y253.253 E1.14421
G1 X161.911 Y253.681 E0.02058
G1 X138.089 Y253.681 E1.14421
G1 X138.089 Y254.11 E0.02058
G1 X161.911 Y254.11 E1.14421
M73 P29 R5
G1 X161.911 Y254.538 E0.02058
G1 X138.089 Y254.538 E1.14421
G1 X138.089 Y254.967 E0.02058
G1 X161.911 Y254.967 E1.14421
G1 X161.911 Y255.395 E0.02058
G1 X138.089 Y255.395 E1.14421
G1 X138.089 Y255.824 E0.02058
G1 X161.911 Y255.824 E1.14421
G1 X161.911 Y256.252 E0.02058
G1 X138.089 Y256.252 E1.14421
G1 X138.089 Y256.681 E0.02058
